X: 212
T: the President
%R: jig
Z: 2017 John Chambers <jc:trillian.mit.edu>
B: John Treat - "Gamut for the Fifes", 1779, p.21 #2
F: https://archive.org/details/GamutFortheFifes
N: The 2nd strain is seriously smudged, and a few notes may be wrong here.
M: 6/8
L: 1/8
K: D
% - - - - - - - - - - - - - - - - - - - - - - - - -
A |\
dAd def | gee e2g | fga agf | gee e2A |\
dAd def | gab a2g | fdf gec | ddd d2 :|
|: f/g/ |\
aba agf | gab e2g | fga Bcd | cde A2 f/g/ |\
aba a2a | bab a2g | fdf gec | ddd d2 :|
% - - - - - - - - - - - - - - - - - - - - - - - - -
